X:1
T:Jimmy Randal
M:3/4
L:1/4
K:G
 D| F- GA/2-B/2 c2| F/2G/2 A G D| D3 F| GA/2-B/2 c2| G A d3/2 e/2|\

M:5/4
 d3 Bc/2-d/2|
M:3/4
 e d c| d A A/2c/2| B A G| D2 D/2D/2| F GA/2-B/2| c F G| A F D| D3|\
 D2 D/2D/2| D3| D2 D/2D/2| D3| D/2D/2
M:3/4
| F GA/2-B/2| c3/2 F/2 G| A F D| D2||

